X:031
U: ~ = !turn!
%%topmargin 3cm
T:Coleman Hornpipe Medley Part II
T:Played by Jean Carignan
B:Traditional Irish Fiddle Tunes. Randy Miller and Jack Perron.
Z:Transcribed by Ralph Palmer
S:Jean Carignan
R:Hornpipe
L:1/8
M:C|
K:D
{/g}fe | dcdA FABA | {/A}GFGE CDEF | EFGA B2 ((3Bcd) | ((3.e.f.e) ((3.d.c.B) A2 fe |
dcdA FABA | {/A}GFGE CDEF | EFGA B2 ((3Bcd) | ((3.e.f.e) d2 d2 |]
A2 | FAdA FAdA | FAdA GBFA | E=c ~c2 Ec ~c2 | E=c ~c2 ((3ABc) AG |
FAdA FAdA | FAdA GBFA | Eeed cABc | ((3.d.c.d) ((3.e.d.c) d2 |]
